X: 5540
T: Burnt Cabbage, The
R: reel
M: 4/4
K: Edorian
|:BE~E2 BAFA|BFAF DEFA|BE~E2 BAFA|1 Bcdf e2dc:|2 Bcdf e3d||
Bdef gfeg|fdad bdad|Bdef gfeg|fedf e3d|
Bdef gfeg|fddc dfaf|g2bg f2ef|dBAF EFGA||

